_includes/icons/ios-signature.svg

<svg fill="#666" height="50" viewBox="0 0 50 50" width="50" xmlns="http://www.w3.org/2000/svg"><path d="m13.1875 2c-2.226562 0-5.097656 1.640625-7.625 4.84375s-4.5625 8.050781-4.5625 14.65625c0 3.070313.984375 6.59375 2.8125 9.4375.464844.722656 1.011719 1.382813 1.59375 2-2.265625 2.894531-4.125 5.09375-4.125 5.09375-.320312.238281-.46875.648438-.375 1.035156.09375.390625.410156.6875.804688.753907.394531.066406.792968-.109375 1.007812-.445313 0 0 1.882813-2.222656 4.1875-5.15625 1.441406 1.070313 3.097656 1.78125 5 1.78125 3.105469 0 6.046875-1.527344 8.59375-3.6875.464844-.394531.839844-.910156 1.28125-1.34375.78125.601563 1.683594 1.03125 2.71875 1.03125 1.582031 0 2.976563-.789062 4.1875-1.8125 1.210938-1.023437 2.292969-2.316406 3.25-3.59375s1.800781-2.515625 2.5-3.40625c.300781-.386719.566406-.636719.78125-.84375.066406.621094.03125 1.605469-.03125 2.59375s-.160156 1.988281-.15625 2.8125c0 .414063.027344.777344.125 1.15625.050781.191406.09375.394531.28125.625s.597656.46875.96875.46875c1.214844 0 2.148438-.707031 2.96875-1.53125.820313-.824219 1.605469-1.839844 2.4375-2.8125 1.664063-1.945312 3.460938-3.65625 6.1875-3.65625.359375.003906.695313-.183594.878906-.496094.179688-.3125.179688-.695312 0-1.007812-.183593-.3125-.519531-.5-.878906-.496094-3.574219 0-5.957031 2.289063-7.71875 4.34375-.878906 1.027344-1.640625 2.011719-2.3125 2.6875-.398437.402344-.644531.417969-.9375.5625.007813-.667969.097656-1.578125.15625-2.53125.0625-1.011719.089844-2.027344 0-2.90625-.046875-.441406-.097656-.867187-.3125-1.28125-.214844-.414062-.769531-.875-1.375-.875-.667969 0-1.105469.339844-1.5.6875s-.769531.757813-1.15625 1.25c-.769531.984375-1.613281 2.246094-2.53125 3.46875s-1.898437 2.429688-2.90625 3.28125c-1.007812.851563-1.988281 1.3125-2.90625 1.3125-.503906 0-.960937-.128906-1.375-.40625 1.417969-1.613281 2.722656-3.3125 3.75-5.09375 1.636719-2.835937 2.707031-5.644531 2.96875-7.9375.128906-1.144531.089844-2.210937-.375-3.09375-.464844-.882812-1.46875-1.46875-2.5625-1.46875-2.199219 0-4.21875 1.4375-5.65625 3.5625s-2.34375 5.007813-2.34375 8.25c0 2.105469.449219 4.046875 1.375 5.5625.039063.066406.113281.09375.15625.15625-.417969.417969-.8125.910156-1.25 1.28125-2.320312 1.964844-4.835937 3.1875-7.28125 3.1875-1.402344 0-2.652344-.550781-3.78125-1.375.925781-1.230469 1.734375-2.15625 2.71875-3.625 4.046875-6.035156 8.15625-13.761719 8.15625-20.8125 0-.796875-.082031-2.25-.875-3.625s-2.449219-2.5625-4.9375-2.5625zm0 2c1.914063 0 2.683594.6875 3.1875 1.5625s.625 2.019531.625 2.625c0 6.25-3.890625 13.796875-7.84375 19.6875-.890625 1.328125-1.59375 2.148438-2.4375 3.28125-.402344-.453125-.871094-.773437-1.21875-1.3125-1.59375-2.480469-2.5-5.714844-2.5-8.34375 0-6.195312 1.910156-10.589844 4.15625-13.4375s4.957031-4.0625 6.03125-4.0625zm13.71875 10c.53125 0 .613281.085938.78125.40625.167969.320313.292969.988281.1875 1.90625-.207031 1.832031-1.210937 4.523438-2.75 7.1875-.910156 1.574219-2.023437 3.097656-3.25 4.53125-.585937-1.09375-.96875-2.5625-.96875-4.21875 0-2.859375.8125-5.375 2-7.125s2.699219-2.6875 4-2.6875zm-26.90625 30v2h50v-2z"/></svg>

<svg xmlns="http://www.w3.org/2000/svg" viewBox="0 0 50 50" width="50" height="50" fill="#666"><path d="M 13.1875 2 C 10.960938 2 8.089844 3.640625 5.5625 6.84375 C 3.035156 10.046875 1 14.894531 1 21.5 C 1 24.570313 1.984375 28.09375 3.8125 30.9375 C 4.277344 31.660156 4.824219 32.320313 5.40625 32.9375 C 3.140625 35.832031 1.28125 38.03125 1.28125 38.03125 C 0.960938 38.269531 0.8125 38.679688 0.90625 39.066406 C 1 39.457031 1.316406 39.753906 1.710938 39.820313 C 2.105469 39.886719 2.503906 39.710938 2.71875 39.375 C 2.71875 39.375 4.601563 37.152344 6.90625 34.21875 C 8.347656 35.289063 10.003906 36 11.90625 36 C 15.011719 36 17.953125 34.472656 20.5 32.3125 C 20.964844 31.917969 21.339844 31.402344 21.78125 30.96875 C 22.5625 31.570313 23.464844 32 24.5 32 C 26.082031 32 27.476563 31.210938 28.6875 30.1875 C 29.898438 29.164063 30.980469 27.871094 31.9375 26.59375 C 32.894531 25.316406 33.738281 24.078125 34.4375 23.1875 C 34.738281 22.800781 35.003906 22.550781 35.21875 22.34375 C 35.285156 22.964844 35.25 23.949219 35.1875 24.9375 C 35.125 25.925781 35.027344 26.925781 35.03125 27.75 C 35.03125 28.164063 35.058594 28.527344 35.15625 28.90625 C 35.207031 29.097656 35.25 29.300781 35.4375 29.53125 C 35.625 29.761719 36.035156 30 36.40625 30 C 37.621094 30 38.554688 29.292969 39.375 28.46875 C 40.195313 27.644531 40.980469 26.628906 41.8125 25.65625 C 43.476563 23.710938 45.273438 22 48 22 C 48.359375 22.003906 48.695313 21.816406 48.878906 21.503906 C 49.058594 21.191406 49.058594 20.808594 48.878906 20.496094 C 48.695313 20.183594 48.359375 19.996094 48 20 C 44.425781 20 42.042969 22.289063 40.28125 24.34375 C 39.402344 25.371094 38.640625 26.355469 37.96875 27.03125 C 37.570313 27.433594 37.324219 27.449219 37.03125 27.59375 C 37.039063 26.925781 37.128906 26.015625 37.1875 25.0625 C 37.25 24.050781 37.277344 23.035156 37.1875 22.15625 C 37.140625 21.714844 37.089844 21.289063 36.875 20.875 C 36.660156 20.460938 36.105469 20 35.5 20 C 34.832031 20 34.394531 20.339844 34 20.6875 C 33.605469 21.035156 33.230469 21.445313 32.84375 21.9375 C 32.074219 22.921875 31.230469 24.183594 30.3125 25.40625 C 29.394531 26.628906 28.414063 27.835938 27.40625 28.6875 C 26.398438 29.539063 25.417969 30 24.5 30 C 23.996094 30 23.539063 29.871094 23.125 29.59375 C 24.542969 27.980469 25.847656 26.28125 26.875 24.5 C 28.511719 21.664063 29.582031 18.855469 29.84375 16.5625 C 29.972656 15.417969 29.933594 14.351563 29.46875 13.46875 C 29.003906 12.585938 28 12 26.90625 12 C 24.707031 12 22.6875 13.4375 21.25 15.5625 C 19.8125 17.6875 18.90625 20.570313 18.90625 23.8125 C 18.90625 25.917969 19.355469 27.859375 20.28125 29.375 C 20.320313 29.441406 20.394531 29.46875 20.4375 29.53125 C 20.019531 29.949219 19.625 30.441406 19.1875 30.8125 C 16.867188 32.777344 14.351563 34 11.90625 34 C 10.503906 34 9.253906 33.449219 8.125 32.625 C 9.050781 31.394531 9.859375 30.46875 10.84375 29 C 14.890625 22.964844 19 15.238281 19 8.1875 C 19 7.390625 18.917969 5.9375 18.125 4.5625 C 17.332031 3.1875 15.675781 2 13.1875 2 Z M 13.1875 4 C 15.101563 4 15.871094 4.6875 16.375 5.5625 C 16.878906 6.4375 17 7.582031 17 8.1875 C 17 14.4375 13.109375 21.984375 9.15625 27.875 C 8.265625 29.203125 7.5625 30.023438 6.71875 31.15625 C 6.316406 30.703125 5.847656 30.382813 5.5 29.84375 C 3.90625 27.363281 3 24.128906 3 21.5 C 3 15.304688 4.910156 10.910156 7.15625 8.0625 C 9.402344 5.214844 12.113281 4 13.1875 4 Z M 26.90625 14 C 27.4375 14 27.519531 14.085938 27.6875 14.40625 C 27.855469 14.726563 27.980469 15.394531 27.875 16.3125 C 27.667969 18.144531 26.664063 20.835938 25.125 23.5 C 24.214844 25.074219 23.101563 26.597656 21.875 28.03125 C 21.289063 26.9375 20.90625 25.46875 20.90625 23.8125 C 20.90625 20.953125 21.71875 18.4375 22.90625 16.6875 C 24.09375 14.9375 25.605469 14 26.90625 14 Z M 0 44 L 0 46 L 50 46 L 50 44 Z"/></svg>
